src/icons/scalable/actions/permissions-sandboxed-symbolic.svg

<?xml version="1.0" encoding="UTF-8"?>
<!--
  SPDX-License-Identifier: CC0-1.0
  SPDX-FileCopyrightText: 2024 GNOME Foundation, Inc.
-->
<svg width="16" height="16" version="1.1" xmlns="http://www.w3.org/2000/svg">
 <path d="m8 0.28516c-0.40302 0-0.80646 0.10423-1.166 0.3125l-4.668 2.6875-0.0019531 0.0019532c-0.72031 0.41908-1.1613 1.1934-1.1621 2.0254v5.375c8.469e-4 0.83202 0.4418 1.6063 1.1621 2.0254l0.0019531 0.001953 4.668 2.6875c0.72039 0.41728 1.6162 0.41685 2.3359-0.001953l4.6641-2.6855 0.001954-0.001953c0.72027-0.41903 1.1613-1.1934 1.1621-2.0254v-5.375c-8.47e-4 -0.83202-0.4418-1.6063-1.1621-2.0254l-0.001954-0.0019532-4.6641-2.6855c-0.36052-0.20975-0.76548-0.31445-1.1699-0.31445zm0 1.998c0.056066 0 0.11213 0.014709 0.16406 0.044922l0.0019531 0.0019531 3.8145 2.1973-3.9805 2.3203-3.9805-2.3203 3.8145-2.1973 0.0019531-0.0019531c0.05193-0.030212 0.108-0.044922 0.16406-0.044922zm-4.998 3.9707 3.998 2.3301v4.6055l-3.8301-2.2051c-0.10324-0.060057-0.16719-0.17082-0.16797-0.29688v-4.4336zm9.9961 0v4.4316c-1.29e-4 0.12684-0.06422 0.23847-0.16797 0.29883l-3.8301 2.2051v-4.6055l3.998-2.3301z" color="#000000" style="-inkscape-stroke:none"/>
</svg>

<svg xmlns="http://www.w3.org/2000/svg" width="16" height="16"><path d="M8 .285a2.3 2.3 0 0 0-1.166.313L2.166 3.285l-.002.002a2.35 2.35 0 0 0-1.162 2.026v5.375c0 .832.442 1.606 1.162 2.025l.002.002 4.668 2.687A2.33 2.33 0 0 0 9.17 15.4l4.664-2.685.002-.002a2.35 2.35 0 0 0 1.162-2.025V5.313c0-.832-.442-1.607-1.162-2.026l-.002-.002L9.17.6A2.3 2.3 0 0 0 8 .285m0 1.998q.085 0 .164.045l.002.002 3.815 2.197L8 6.847l-3.98-2.32L7.834 2.33l.002-.002A.3.3 0 0 1 8 2.283m-4.998 3.97L7 8.585v4.605l-3.83-2.205a.34.34 0 0 1-.168-.297zm9.996 0v4.432a.34.34 0 0 1-.168.3L9 13.188V8.584z" color="#000" style="-inkscape-stroke:none"/></svg>
